tools/download-figma-icons/icons/solid/training.svg

<svg width="24" height="24" viewBox="0 0 24 24" fill="none" xmlns="http://www.w3.org/2000/svg">
<path fill-rule="evenodd" clip-rule="evenodd" d="M23.5275 10.4756C23.8125 10.3631 24 10.0856 24 9.77812C24 9.47062 23.8125 9.19313 23.5275 9.08063L12.2775 4.55063C12.0975 4.48312 11.9025 4.48312 11.7225 4.55063L0.4725 9.08063C0.1875 9.19313 0 9.47062 0 9.77812C0 10.0856 0.1875 10.3631 0.4725 10.4756L11.7225 14.9456C11.8125 14.9831 11.9025 14.9981 12 14.9981C12.0975 14.9981 12.1875 14.9831 12.2775 14.9456L21 11.4806V16.4981C21 16.9106 21.3375 17.2481 21.75 17.2481C22.1625 17.2481 22.5 16.9106 22.5 16.4981V10.8806L23.5275 10.4756ZM19.5 16.9481V13.4981L12.3525 16.4283C12.24 16.4741 12.1275 16.4981 12 16.4981C11.8725 16.4981 11.76 16.4741 11.6475 16.4283L4.5 13.4981V16.9481C4.5 18.8606 7.86 20.2481 12 20.2481C16.14 20.2481 19.5 18.8606 19.5 16.9481Z" fill="black"/>
</svg>

<svg xmlns="http://www.w3.org/2000/svg" width="24" height="24" fill="none" viewBox="0 0 24 24"><path fill="currentColor" fill-rule="evenodd" d="M23.528 10.476a.75.75 0 0 0 0-1.395l-11.25-4.53a.8.8 0 0 0-.556 0L.473 9.08a.75.75 0 0 0 0 1.395l11.25 4.47q.133.054.278.052a.7.7 0 0 0 .277-.052L21 11.48v5.017c0 .413.337.75.75.75s.75-.337.75-.75V10.88zM19.5 16.948v-3.45l-7.148 2.93a.9.9 0 0 1-.352.07.9.9 0 0 1-.352-.07L4.5 13.498v3.45c0 1.913 3.36 3.3 7.5 3.3s7.5-1.387 7.5-3.3" clip-rule="evenodd"/></svg>
